polaris-icons/icons/new-icons/MetaobjectMinor.svg

<svg width="20" height="20" viewBox="0 0 20 20" fill="none" xmlns="http://www.w3.org/2000/svg">
<path d="M3 6.75C3 5.23122 4.23122 4 5.75 4H6C6.41421 4 6.75 4.33579 6.75 4.75C6.75 5.16421 6.41421 5.5 6 5.5H5.75C5.05964 5.5 4.5 6.05964 4.5 6.75V9C4.5 9.19891 4.42098 9.38968 4.28033 9.53033L3.81066 10L4.28033 10.4697C4.42098 10.6103 4.5 10.8011 4.5 11V13.25C4.5 13.9404 5.05964 14.5 5.75 14.5H6C6.41421 14.5 6.75 14.8358 6.75 15.25C6.75 15.6642 6.41421 16 6 16H5.75C4.23122 16 3 14.7688 3 13.25V11.3107L2.21967 10.5303C1.92678 10.2374 1.92678 9.76256 2.21967 9.46967L3 8.68934V6.75Z" fill="#4A4A4A"/>
<path d="M17 13.25C17 14.7688 15.7688 16 14.25 16H14C13.5858 16 13.25 15.6642 13.25 15.25C13.25 14.8358 13.5858 14.5 14 14.5H14.25C14.9404 14.5 15.5 13.9404 15.5 13.25V11C15.5 10.8011 15.579 10.6103 15.7197 10.4697L16.1893 10L15.7197 9.53033C15.579 9.38968 15.5 9.19891 15.5 9V6.75C15.5 6.05964 14.9404 5.5 14.25 5.5H14C13.5858 5.5 13.25 5.16421 13.25 4.75C13.25 4.33579 13.5858 4 14 4H14.25C15.7688 4 17 5.23122 17 6.75V8.68934L17.7803 9.46967C18.0732 9.76256 18.0732 10.2374 17.7803 10.5303L17 11.3107V13.25Z" fill="#4A4A4A"/>
<path fill-rule="evenodd" clip-rule="evenodd" d="M10.7858 6.0555C10.2914 5.80702 9.70859 5.80702 9.21417 6.0555L6.96417 7.18627C6.37306 7.48334 6 8.08835 6 8.74991V11.25C6 11.9116 6.37306 12.5166 6.96417 12.8136L9.21417 13.9444C9.70859 14.1929 10.2914 14.1929 10.7858 13.9444L13.0358 12.8136C13.6269 12.5166 14 11.9116 14 11.25V8.74991C14 8.08835 13.6269 7.48334 13.0358 7.18627L10.7858 6.0555ZM9.88774 7.39576C9.95837 7.36027 10.0416 7.36027 10.1123 7.39576L12.3623 8.52653C12.4467 8.56897 12.5 8.6554 12.5 8.74991V11.25C12.5 11.3445 12.4467 11.4309 12.3623 11.4734L10.1123 12.6042C10.0416 12.6396 9.95837 12.6396 9.88774 12.6042L7.63774 11.4734C7.55329 11.4309 7.5 11.3445 7.5 11.25V8.74991C7.5 8.6554 7.55329 8.56897 7.63774 8.52653L9.88774 7.39576Z" fill="#4A4A4A"/>
</svg>

<svg viewBox="0 0 20 20" xmlns="http://www.w3.org/2000/svg"><path d="M3 6.75a2.75 2.75 0 0 1 2.75-2.75h.25a.75.75 0 0 1 0 1.5h-.25c-.69 0-1.25.56-1.25 1.25v2.25a.75.75 0 0 1-.22.53l-.47.47.47.47c.141.14.22.331.22.53v2.25c0 .69.56 1.25 1.25 1.25h.25a.75.75 0 0 1 0 1.5h-.25a2.75 2.75 0 0 1-2.75-2.75v-1.94l-.78-.78a.75.75 0 0 1 0-1.06l.78-.78v-1.94Z" fill="#5C5F62"/><path d="M17 13.25a2.75 2.75 0 0 1-2.75 2.75h-.25a.75.75 0 0 1 0-1.5h.25c.69 0 1.25-.56 1.25-1.25v-2.25a.75.75 0 0 1 .22-.53l.47-.47-.47-.47a.75.75 0 0 1-.22-.53v-2.25c0-.69-.56-1.25-1.25-1.25h-.25a.75.75 0 0 1 0-1.5h.25a2.75 2.75 0 0 1 2.75 2.75v1.94l.78.78a.75.75 0 0 1 0 1.06l-.78.78v1.94Z" fill="#5C5F62"/><path fill-rule="evenodd" d="M10.786 6.056a1.75 1.75 0 0 0-1.572 0l-2.25 1.13a1.75 1.75 0 0 0-.964 1.564v2.5c0 .662.373 1.267.964 1.564l2.25 1.13a1.75 1.75 0 0 0 1.572 0l2.25-1.13a1.75 1.75 0 0 0 .964-1.564v-2.5a1.75 1.75 0 0 0-.964-1.564l-2.25-1.13Zm-.898 1.34a.25.25 0 0 1 .224 0l2.25 1.13a.25.25 0 0 1 .138.224v2.5a.25.25 0 0 1-.138.223l-2.25 1.131a.25.25 0 0 1-.224 0l-2.25-1.13a.25.25 0 0 1-.138-.224v-2.5a.25.25 0 0 1 .138-.223l2.25-1.131Z" fill="#5C5F62"/></svg>
